;Hand optimized
;Estimated machine time: 2 minutes
G40 (disable tool radius compensation)
G49 (disable tool length compensation)
G80 (cancel modal motion)
G54 (select coordinate system 1)
G90 (disable incremental moves)
G21 (metric)
G61 (exact path mode)
F300.00000
S1000.00000
;
T1 M6
G0 Z1.0000
M3 (start spindle)
G04 P3 (wait for 3 seconds)
 X38.9585 Y22.6860
G1 Z-1.7100
 X39.3691 Y22.6762
 X39.7725 Y22.6472
 X40.1678 Y22.5994
 X40.5552 Y22.5334
 X40.9344 Y22.4496
 X41.3048 Y22.3486
 X41.6660 Y22.2309
 X42.0177 Y22.0965
 X42.3601 Y21.9462
 X42.6923 Y21.7803
 X43.0140 Y21.5994
 X43.3251 Y21.4036
 X43.6249 Y21.1937
 X43.9132 Y20.9698
 X44.1898 Y20.7321
 X44.4542 Y20.4815
 X44.7058 Y20.2182
 X44.9446 Y19.9424
 X45.1698 Y19.6547
 X45.3812 Y19.3553
 X45.5784 Y19.0448
 X45.7609 Y18.7232
 X45.9286 Y18.3913
 X46.0805 Y18.0492
 X46.2167 Y17.6970
 X46.3366 Y17.3355
 X46.4398 Y16.9647
 X46.5257 Y16.5854
 X46.5938 Y16.1973
 X46.6441 Y15.8010
 X46.6754 Y15.3971
 X46.6879 Y14.9764
 Y1.0000
 X31.2289
 Y14.9764
 X31.2414 Y15.3969
 X31.2729 Y15.8010
 X31.3230 Y16.1975
 X31.3911 Y16.5854
 X31.4770 Y16.9647
 X31.5802 Y17.3355
 X31.7001 Y17.6970
 X31.8363 Y18.0490
 X31.9884 Y18.3913
 X32.1559 Y18.7233
 X32.3385 Y19.0447
 X32.5358 Y19.3554
 X32.7470 Y19.6547
 X32.9723 Y19.9424
 X33.2110 Y20.2182
 X33.4627 Y20.4815
 X33.7270 Y20.7321
 X34.0036 Y20.9697
 X34.2920 Y21.1936
 X34.5920 Y21.4037
 X34.9029 Y21.5994
 X35.2247 Y21.7803
 X35.5569 Y21.9462
 X35.8990 Y22.0964
 X36.2510 Y22.2309
 X36.6121 Y22.3486
 X36.9824 Y22.4496
 X37.3616 Y22.5334
 X37.7490 Y22.5994
 X38.1444 Y22.6472
 X38.5477 Y22.6762
 X38.9585 Y22.6860
 X39.3691 Y22.6762
G0 Z1.0000


 X63.8999 Y16.1889
G1 Z-3.1750
 X64.0367 Y16.1823
 X64.1656 Y16.1633
 X64.2878 Y16.1328
 X64.4027 Y16.0918
 X64.5100 Y16.0411
 X64.6102 Y15.9810
 X64.7034 Y15.9118
 X64.7888 Y15.8343
 X64.8660 Y15.7490
 X64.9352 Y15.6553
 X64.9955 Y15.5546
 X65.0462 Y15.4468
 X65.0874 Y15.3311
 X65.1177 Y15.2091
 X65.1367 Y15.0789
 X65.1434 Y14.9413
 X65.1367 Y14.8037
 X65.1177 Y14.6736
 X65.0874 Y14.5515
 X65.0462 Y14.4359
 X64.9955 Y14.3281
 X64.9352 Y14.2273
 X64.8660 Y14.1338
 X64.7888 Y14.0484
 X64.7033 Y13.9708
 X64.6104 Y13.9017
 X64.5101 Y13.8416
 X64.4023 Y13.7906
 X64.2878 Y13.7498
 X64.1658 Y13.7194
 X64.0367 Y13.7004
 X63.8999 Y13.6938
 X63.7630 Y13.7004
 X63.6338 Y13.7194
 X63.5119 Y13.7498
 X63.3974 Y13.7906
 X63.2896 Y13.8416
 X63.1892 Y13.9018
 X63.0965 Y13.9707
 X63.0110 Y14.0483
 X62.9334 Y14.1341
 X62.8645 Y14.2271
 X62.8041 Y14.3283
 X62.7533 Y14.4359
 X62.7125 Y14.5510
 X62.6819 Y14.6740
 X62.6629 Y14.8037
 X62.6563 Y14.9413
 X62.6629 Y15.0789
 X62.6819 Y15.2087
 X62.7125 Y15.3315
 X62.7534 Y15.4468
 X62.8041 Y15.5544
 X62.8645 Y15.6555
 X62.9335 Y15.7488
 X63.0110 Y15.8344
 X63.0963 Y15.9119
 X63.1894 Y15.9809
 X63.2897 Y16.0411
 X63.3970 Y16.0918
 X63.5119 Y16.1328
 X63.6341 Y16.1633
 X63.7630 Y16.1823
 X63.8999 Y16.1889
G1 Z-6.3500
 X64.0367 Y16.1823
 X64.1656 Y16.1633
 X64.2878 Y16.1328
 X64.4027 Y16.0918
 X64.5100 Y16.0411
 X64.6102 Y15.9810
 X64.7034 Y15.9118
 X64.7888 Y15.8343
 X64.8660 Y15.7490
 X64.9352 Y15.6553
 X64.9955 Y15.5546
 X65.0462 Y15.4468
 X65.0874 Y15.3311
 X65.1177 Y15.2091
 X65.1367 Y15.0789
 X65.1434 Y14.9413
 X65.1367 Y14.8037
 X65.1177 Y14.6736
 X65.0874 Y14.5515
 X65.0462 Y14.4359
 X64.9955 Y14.3281
 X64.9352 Y14.2273
 X64.8660 Y14.1338
 X64.7888 Y14.0484
 X64.7033 Y13.9708
 X64.6104 Y13.9017
 X64.5101 Y13.8416
 X64.4023 Y13.7906
 X64.2878 Y13.7498
 X64.1658 Y13.7194
 X64.0367 Y13.7004
 X63.8999 Y13.6938
 X63.7630 Y13.7004
 X63.6338 Y13.7194
 X63.5119 Y13.7498
 X63.3974 Y13.7906
 X63.2896 Y13.8416
 X63.1892 Y13.9018
 X63.0965 Y13.9707
 X63.0110 Y14.0483
 X62.9334 Y14.1341
 X62.8645 Y14.2271
 X62.8041 Y14.3283
 X62.7533 Y14.4359
 X62.7125 Y14.5510
 X62.6819 Y14.6740
 X62.6629 Y14.8037
 X62.6563 Y14.9413
 X62.6629 Y15.0789
 X62.6819 Y15.2087
 X62.7125 Y15.3315
 X62.7534 Y15.4468
 X62.8041 Y15.5544
 X62.8645 Y15.6555
 X62.9335 Y15.7488
 X63.0110 Y15.8344
 X63.0963 Y15.9119
 X63.1894 Y15.9809
 X63.2897 Y16.0411
 X63.3970 Y16.0918
 X63.5119 Y16.1328
 X63.6341 Y16.1633
 X63.7630 Y16.1823
 X63.8999 Y16.1889
G0 Z1.0000







 X38.9086 Y19.9875
G1 Z-3.1750
 X39.1762 Y19.9812
 X39.4384 Y19.9622
 X39.6955 Y19.9310
 X39.9467 Y19.8881
 X40.1927 Y19.8334
 X40.4326 Y19.7677
 X40.6662 Y19.6911
 X40.8938 Y19.6038
 X41.1151 Y19.5062
 X41.3295 Y19.3987
 X41.5371 Y19.2813
 X41.7381 Y19.1543
 X41.9314 Y19.0183
 X42.1171 Y18.8733
 X42.2954 Y18.7195
 X42.4656 Y18.5572
 X42.6276 Y18.3866
 X42.7811 Y18.2082
 X42.9260 Y18.0217
 X43.0620 Y17.8279
 X43.1886 Y17.6269
 X43.3058 Y17.4186
 X43.4133 Y17.2036
 X43.5108 Y16.9818
 X43.5980 Y16.7538
 X43.6743 Y16.5197
 X43.7401 Y16.2786
 X43.7947 Y16.0324
 X43.8376 Y15.7805
 X43.8687 Y15.5226
 X43.8878 Y15.2595
 X43.8944 Y14.9794
 Y1.0000
 X33.9226
 Y14.9794
 X33.9292 Y15.2595
 X33.9483 Y15.5224
 X33.9795 Y15.7804
 X34.0224 Y16.0327
 X34.0768 Y16.2789
 X34.1425 Y16.5192
 X34.2191 Y16.7535
 X34.3064 Y16.9820
 X34.4038 Y17.2036
 X34.5113 Y17.4186
 X34.6285 Y17.6269
 X34.7551 Y17.8279
 X34.8911 Y18.0217
 X35.0360 Y18.2082
 X35.1895 Y18.3866
 X35.3515 Y18.5572
 X35.5217 Y18.7194
 X35.7000 Y18.8732
 X35.8859 Y19.0184
 X36.0791 Y19.1543
 X36.2800 Y19.2813
 X36.4876 Y19.3988
 X36.7019 Y19.5062
 X36.9231 Y19.6038
 X37.1511 Y19.6911
 X37.3846 Y19.7678
 X37.6245 Y19.8334
 X37.8704 Y19.8881
 X38.1216 Y19.9310
 X38.3787 Y19.9622
 X38.6409 Y19.9812
 X38.9086 Y19.9875
 X39.1762 Y19.9812
 X38.9086 Y19.9875
G1 Z-6.3500
 X39.1762 Y19.9812
 X39.4384 Y19.9622
 X39.6955 Y19.9310
 X39.9467 Y19.8881
 X40.1927 Y19.8334
 X40.4326 Y19.7677
 X40.6662 Y19.6911
 X40.8938 Y19.6038
 X41.1151 Y19.5062
 X41.3295 Y19.3987
 X41.5371 Y19.2813
 X41.7381 Y19.1543
 X41.9314 Y19.0183
 X42.1171 Y18.8733
 X42.2954 Y18.7195
 X42.4656 Y18.5572
 X42.6276 Y18.3866
 X42.7811 Y18.2082
 X42.9260 Y18.0217
 X43.0620 Y17.8279
 X43.1886 Y17.6269
 X43.3058 Y17.4186
 X43.4133 Y17.2036
 X43.5108 Y16.9818
 X43.5980 Y16.7538
 X43.6743 Y16.5197
 X43.7401 Y16.2786
 X43.7947 Y16.0324
 X43.8376 Y15.7805
 X43.8687 Y15.5226
 X43.8878 Y15.2595
 X43.8944 Y14.9794
 Y1.0000
 X33.9226
 Y14.9794
 X33.9292 Y15.2595
 X33.9483 Y15.5224
 X33.9795 Y15.7804
 X34.0224 Y16.0327
 X34.0768 Y16.2789
 X34.1425 Y16.5192
 X34.2191 Y16.7535
 X34.3064 Y16.9820
 X34.4038 Y17.2036
 X34.5113 Y17.4186
 X34.6285 Y17.6269
 X34.7551 Y17.8279
 X34.8911 Y18.0217
 X35.0360 Y18.2082
 X35.1895 Y18.3866
 X35.3515 Y18.5572
 X35.5217 Y18.7194
 X35.7000 Y18.8732
 X35.8859 Y19.0184
 X36.0791 Y19.1543
 X36.2800 Y19.2813
 X36.4876 Y19.3988
 X36.7019 Y19.5062
 X36.9231 Y19.6038
 X37.1511 Y19.6911
 X37.3846 Y19.7678
 X37.6245 Y19.8334
 X37.8704 Y19.8881
 X38.1216 Y19.9310
 X38.3787 Y19.9622
 X38.6409 Y19.9812
 X38.9086 Y19.9875
 X39.1762 Y19.9812
G0 Z1.0000




 X14.0171 Y16.1889
G1 Z-3.1750
 X14.1538 Y16.1823
 X14.2828 Y16.1633
 X14.4049 Y16.1328
 X14.5197 Y16.0918
 X14.6271 Y16.0411
 X14.7274 Y15.9809
 X14.8207 Y15.9117
 X14.9059 Y15.8344
 X14.9832 Y15.7489
 X15.0524 Y15.6555
 X15.1126 Y15.5546
 X15.1636 Y15.4464
 X15.2045 Y15.3315
 X15.2348 Y15.2091
 X15.2539 Y15.0787
 X15.2606 Y14.9413
 X15.2539 Y14.8039
 X15.2348 Y14.6736
 X15.2045 Y14.5510
 X15.1637 Y14.4363
 X15.1126 Y14.3281
 X15.0524 Y14.2271
 X14.9833 Y14.1339
 X14.9059 Y14.0483
 X14.8206 Y13.9709
 X14.7276 Y13.9018
 X14.6272 Y13.8416
 X14.5193 Y13.7906
 X14.4049 Y13.7498
 X14.2830 Y13.7194
 X14.1538 Y13.7004
 X14.0171 Y13.6938
 X13.8802 Y13.7004
 X13.7510 Y13.7194
 X13.6291 Y13.7498
 X13.5145 Y13.7907
 X13.4068 Y13.8416
 X13.3065 Y13.9017
 X13.2135 Y13.9708
 X13.1282 Y14.0483
 X13.0507 Y14.1339
 X12.9817 Y14.2271
 X12.9214 Y14.3281
 X12.8705 Y14.4361
 X12.8296 Y14.5513
 X12.7991 Y14.6738
 X12.7801 Y14.8037
 X12.7735 Y14.9413
 X12.7801 Y15.0789
 X12.7991 Y15.2089
 X12.8295 Y15.3313
 X12.8705 Y15.4466
 X12.9214 Y15.5546
 X12.9817 Y15.6555
 X13.0508 Y15.7489
 X13.1282 Y15.8344
 X13.2134 Y15.9118
 X13.3067 Y15.9810
 X13.4068 Y16.0411
 X13.5142 Y16.0918
 X13.6291 Y16.1328
 X13.7513 Y16.1633
 X13.8802 Y16.1823
 X14.0171 Y16.1889
G1 Z-6.3500
 X14.1538 Y16.1823
 X14.2828 Y16.1633
 X14.4049 Y16.1328
 X14.5197 Y16.0918
 X14.6271 Y16.0411
 X14.7274 Y15.9809
 X14.8207 Y15.9117
 X14.9059 Y15.8344
 X14.9832 Y15.7489
 X15.0524 Y15.6555
 X15.1126 Y15.5546
 X15.1636 Y15.4464
 X15.2045 Y15.3315
 X15.2348 Y15.2091
 X15.2539 Y15.0787
 X15.2606 Y14.9413
 X15.2539 Y14.8039
 X15.2348 Y14.6736
 X15.2045 Y14.5510
 X15.1637 Y14.4363
 X15.1126 Y14.3281
 X15.0524 Y14.2271
 X14.9833 Y14.1339
 X14.9059 Y14.0483
 X14.8206 Y13.9709
 X14.7276 Y13.9018
 X14.6272 Y13.8416
 X14.5193 Y13.7906
 X14.4049 Y13.7498
 X14.2830 Y13.7194
 X14.1538 Y13.7004
 X14.0171 Y13.6938
 X13.8802 Y13.7004
 X13.7510 Y13.7194
 X13.6291 Y13.7498
 X13.5145 Y13.7907
 X13.4068 Y13.8416
 X13.3065 Y13.9017
 X13.2135 Y13.9708
 X13.1282 Y14.0483
 X13.0507 Y14.1339
 X12.9817 Y14.2271
 X12.9214 Y14.3281
 X12.8705 Y14.4361
 X12.8296 Y14.5513
 X12.7991 Y14.6738
 X12.7801 Y14.8037
 X12.7735 Y14.9413
 X12.7801 Y15.0789
 X12.7991 Y15.2089
 X12.8295 Y15.3313
 X12.8705 Y15.4466
 X12.9214 Y15.5546
 X12.9817 Y15.6555
 X13.0508 Y15.7489
 X13.1282 Y15.8344
 X13.2134 Y15.9118
 X13.3067 Y15.9810
 X13.4068 Y16.0411
 X13.5142 Y16.0918
 X13.6291 Y16.1328
 X13.7513 Y16.1633
 X13.8802 Y16.1823
 X14.0171 Y16.1889
G0 Z1.0000
M5 (stop spindle)
G04 P3 (wait for 3 seconds)
G0 Z1.0000
M2 (end program)
