;Hand optimized
;Estimated machine time: 2 minutes
G40 (disable tool radius compensation)
G49 (disable tool length compensation)
G80 (cancel modal motion)
G54 (select coordinate system 1)
G90 (disable incremental moves)
G21 (metric)
G61 (exact path mode)
F300.00000
S1000.00000
;
T1 M6
G0 Z1.0000
M3 (start spindle)
G04 P3 (wait for 3 seconds)
 X63.8999 Y16.1889
G1 Z-3.1750
 X64.0367 Y16.1823
 X64.1656 Y16.1633
 X64.2878 Y16.1328
 X64.4027 Y16.0918
 X64.5100 Y16.0411
 X64.6102 Y15.9810
 X64.7034 Y15.9118
 X64.7888 Y15.8343
 X64.8660 Y15.7490
 X64.9352 Y15.6553
 X64.9955 Y15.5546
 X65.0462 Y15.4468
 X65.0874 Y15.3311
 X65.1177 Y15.2091
 X65.1367 Y15.0789
 X65.1434 Y14.9413
 X65.1367 Y14.8037
 X65.1177 Y14.6736
 X65.0874 Y14.5515
 X65.0462 Y14.4359
 X64.9955 Y14.3281
 X64.9352 Y14.2273
 X64.8660 Y14.1338
 X64.7888 Y14.0484
 X64.7033 Y13.9708
 X64.6104 Y13.9017
 X64.5101 Y13.8416
 X64.4023 Y13.7906
 X64.2878 Y13.7498
 X64.1658 Y13.7194
 X64.0367 Y13.7004
 X63.8999 Y13.6938
 X63.7630 Y13.7004
 X63.6338 Y13.7194
 X63.5119 Y13.7498
 X63.3974 Y13.7906
 X63.2896 Y13.8416
 X63.1892 Y13.9018
 X63.0965 Y13.9707
 X63.0110 Y14.0483
 X62.9334 Y14.1341
 X62.8645 Y14.2271
 X62.8041 Y14.3283
 X62.7533 Y14.4359
 X62.7125 Y14.5510
 X62.6819 Y14.6740
 X62.6629 Y14.8037
 X62.6563 Y14.9413
 X62.6629 Y15.0789
 X62.6819 Y15.2087
 X62.7125 Y15.3315
 X62.7534 Y15.4468
 X62.8041 Y15.5544
 X62.8645 Y15.6555
 X62.9335 Y15.7488
 X63.0110 Y15.8344
 X63.0963 Y15.9119
 X63.1894 Y15.9809
 X63.2897 Y16.0411
 X63.3970 Y16.0918
 X63.5119 Y16.1328
 X63.6341 Y16.1633
 X63.7630 Y16.1823
 X63.8999 Y16.1889
G1 Z-6.3500
 X64.0367 Y16.1823
 X64.1656 Y16.1633
 X64.2878 Y16.1328
 X64.4027 Y16.0918
 X64.5100 Y16.0411
 X64.6102 Y15.9810
 X64.7034 Y15.9118
 X64.7888 Y15.8343
 X64.8660 Y15.7490
 X64.9352 Y15.6553
 X64.9955 Y15.5546
 X65.0462 Y15.4468
 X65.0874 Y15.3311
 X65.1177 Y15.2091
 X65.1367 Y15.0789
 X65.1434 Y14.9413
 X65.1367 Y14.8037
 X65.1177 Y14.6736
 X65.0874 Y14.5515
 X65.0462 Y14.4359
 X64.9955 Y14.3281
 X64.9352 Y14.2273
 X64.8660 Y14.1338
 X64.7888 Y14.0484
 X64.7033 Y13.9708
 X64.6104 Y13.9017
 X64.5101 Y13.8416
 X64.4023 Y13.7906
 X64.2878 Y13.7498
 X64.1658 Y13.7194
 X64.0367 Y13.7004
 X63.8999 Y13.6938
 X63.7630 Y13.7004
 X63.6338 Y13.7194
 X63.5119 Y13.7498
 X63.3974 Y13.7906
 X63.2896 Y13.8416
 X63.1892 Y13.9018
 X63.0965 Y13.9707
 X63.0110 Y14.0483
 X62.9334 Y14.1341
 X62.8645 Y14.2271
 X62.8041 Y14.3283
 X62.7533 Y14.4359
 X62.7125 Y14.5510
 X62.6819 Y14.6740
 X62.6629 Y14.8037
 X62.6563 Y14.9413
 X62.6629 Y15.0789
 X62.6819 Y15.2087
 X62.7125 Y15.3315
 X62.7534 Y15.4468
 X62.8041 Y15.5544
 X62.8645 Y15.6555
 X62.9335 Y15.7488
 X63.0110 Y15.8344
 X63.0963 Y15.9119
 X63.1894 Y15.9809
 X63.2897 Y16.0411
 X63.3970 Y16.0918
 X63.5119 Y16.1328
 X63.6341 Y16.1633
 X63.7630 Y16.1823
 X63.8999 Y16.1889
G0 Z1.0000



 X38.9086 Y22.1862
G1 Z-3.1750
 X39.2922 Y22.1771
 X39.6688 Y22.1499
 X40.0379 Y22.1052
 X40.3994 Y22.0434
 X40.7531 Y21.9650
 X41.0984 Y21.8705
 X41.4353 Y21.7602
 X41.7629 Y21.6347
 X42.0819 Y21.4939
 X42.3916 Y21.3388
 X42.6910 Y21.1697
 X42.9805 Y20.9868
 X43.2596 Y20.7904
 X43.5278 Y20.5811
 X43.7850 Y20.3591
 X44.0306 Y20.1250
 X44.2644 Y19.8789
 X44.4861 Y19.6212
 X44.6950 Y19.3524
 X44.8909 Y19.0730
 X45.0738 Y18.7826
 X45.2428 Y18.4824
 X45.3977 Y18.1723
 X45.5380 Y17.8528
 X45.6634 Y17.5241
 X45.7736 Y17.1863
 X45.8681 Y16.8402
 X45.9464 Y16.4860
 X46.0080 Y16.1237
 X46.0526 Y15.7533
 X46.0799 Y15.3757
 X46.0890 Y14.9913
 X46.0799 Y14.6068
 X46.0526 Y14.2294
 X46.0080 Y13.8589
 X45.9464 Y13.4966
 X45.8681 Y13.1424
 X45.7736 Y12.7962
 X45.6634 Y12.4584
 X45.5380 Y12.1298
 X45.3977 Y11.8104
 X45.2427 Y11.5003
 X45.0738 Y11.1999
 X44.8910 Y10.9098
 X44.6950 Y10.6301
 X44.4861 Y10.3614
 X44.2644 Y10.1037
 X44.0306 Y9.8576
 X43.7850 Y9.6235
 X43.5278 Y9.4015
 X43.2596 Y9.1922
 X42.9806 Y8.9959
 X42.6910 Y8.8129
 X42.3915 Y8.6437
 X42.0820 Y8.4887
 X41.7631 Y8.3480
 X41.4353 Y8.2225
 X41.0983 Y8.1121
 X40.7531 Y8.0176
 X40.3994 Y7.9392
 X40.0380 Y7.8775
 X39.6687 Y7.8327
 X39.2921 Y7.8056
 X38.9086 Y7.7963
 X38.5249 Y7.8056
 X38.1484 Y7.8327
 X37.7791 Y7.8775
 X37.4176 Y7.9392
 X37.0640 Y8.0176
 X36.7188 Y8.1121
 X36.3818 Y8.2225
 X36.0540 Y8.3480
 X35.7352 Y8.4886
 X35.4257 Y8.6437
 X35.1260 Y8.8129
 X34.8365 Y8.9959
 X34.5575 Y9.1922
 X34.2893 Y9.4015
 X34.0321 Y9.6235
 X33.7865 Y9.8576
 X33.5527 Y10.1037
 X33.3311 Y10.3613
 X33.1222 Y10.6301
 X32.9261 Y10.9099
 X32.7433 Y11.1999
 X32.5744 Y11.5002
 X32.4195 Y11.8104
 X32.2790 Y12.1299
 X32.1537 Y12.4583
 X32.0436 Y12.7961
 X31.9490 Y13.1425
 X31.8707 Y13.4967
 X31.8091 Y13.8589
 X31.7645 Y14.2294
 X31.7372 Y14.6068
 X31.7281 Y14.9913
 X31.7372 Y15.3757
 X31.7645 Y15.7533
 X31.8091 Y16.1237
 X31.8707 Y16.4859
 X31.9490 Y16.8401
 X32.0436 Y17.1865
 X32.1537 Y17.5242
 X32.2791 Y17.8527
 X32.4195 Y18.1723
 X32.5744 Y18.4825
 X32.7433 Y18.7826
 X32.9261 Y19.0729
 X33.1221 Y19.3524
 X33.3311 Y19.6213
 X33.5527 Y19.8789
 X33.7865 Y20.1250
 X34.0321 Y20.3591
 X34.2893 Y20.5811
 X34.5575 Y20.7904
 X34.8366 Y20.9868
 X35.1260 Y21.1697
 X35.4257 Y21.3388
 X35.7353 Y21.4940
 X36.0542 Y21.6347
 X36.3818 Y21.7602
 X36.7187 Y21.8705
 X37.0640 Y21.9650
 X37.4177 Y22.0434
 X37.7792 Y22.1052
 X38.1483 Y22.1499
 X38.5248 Y22.1771
 X38.9086 Y22.1862
G1 Z-6.3500
 X39.2922 Y22.1771
 X39.6688 Y22.1499
 X40.0379 Y22.1052
 X40.3994 Y22.0434
 X40.7531 Y21.9650
 X41.0984 Y21.8705
 X41.4353 Y21.7602
 X41.7629 Y21.6347
 X42.0819 Y21.4939
 X42.3916 Y21.3388
 X42.6910 Y21.1697
 X42.9805 Y20.9868
 X43.2596 Y20.7904
 X43.5278 Y20.5811
 X43.7850 Y20.3591
 X44.0306 Y20.1250
 X44.2644 Y19.8789
 X44.4861 Y19.6212
 X44.6950 Y19.3524
 X44.8909 Y19.0730
 X45.0738 Y18.7826
 X45.2428 Y18.4824
 X45.3977 Y18.1723
 X45.5380 Y17.8528
 X45.6634 Y17.5241
 X45.7736 Y17.1863
 X45.8681 Y16.8402
 X45.9464 Y16.4860
 X46.0080 Y16.1237
 X46.0526 Y15.7533
 X46.0799 Y15.3757
 X46.0890 Y14.9913
 X46.0799 Y14.6068
 X46.0526 Y14.2294
 X46.0080 Y13.8589
 X45.9464 Y13.4966
 X45.8681 Y13.1424
 X45.7736 Y12.7962
 X45.6634 Y12.4584
 X45.5380 Y12.1298
 X45.3977 Y11.8104
 X45.2427 Y11.5003
 X45.0738 Y11.1999
 X44.8910 Y10.9098
 X44.6950 Y10.6301
 X44.4861 Y10.3614
 X44.2644 Y10.1037
 X44.0306 Y9.8576
 X43.7850 Y9.6235
 X43.5278 Y9.4015
 X43.2596 Y9.1922
 X42.9806 Y8.9959
 X42.6910 Y8.8129
 X42.3915 Y8.6437
 X42.0820 Y8.4887
 X41.7631 Y8.3480
 X41.4353 Y8.2225
 X41.0983 Y8.1121
 X40.7531 Y8.0176
 X40.3994 Y7.9392
 X40.0380 Y7.8775
 X39.6687 Y7.8327
 X39.2921 Y7.8056
 X38.9086 Y7.7963
 X38.5249 Y7.8056
 X38.1484 Y7.8327
 X37.7791 Y7.8775
 X37.4176 Y7.9392
 X37.0640 Y8.0176
 X36.7188 Y8.1121
 X36.3818 Y8.2225
 X36.0540 Y8.3480
 X35.7352 Y8.4886
 X35.4257 Y8.6437
 X35.1260 Y8.8129
 X34.8365 Y8.9959
 X34.5575 Y9.1922
 X34.2893 Y9.4015
 X34.0321 Y9.6235
 X33.7865 Y9.8576
 X33.5527 Y10.1037
 X33.3311 Y10.3613
 X33.1222 Y10.6301
 X32.9261 Y10.9099
 X32.7433 Y11.1999
 X32.5744 Y11.5002
 X32.4195 Y11.8104
 X32.2790 Y12.1299
 X32.1537 Y12.4583
 X32.0436 Y12.7961
 X31.9490 Y13.1425
 X31.8707 Y13.4967
 X31.8091 Y13.8589
 X31.7645 Y14.2294
 X31.7372 Y14.6068
 X31.7281 Y14.9913
 X31.7372 Y15.3757
 X31.7645 Y15.7533
 X31.8091 Y16.1237
 X31.8707 Y16.4859
 X31.9490 Y16.8401
 X32.0436 Y17.1865
 X32.1537 Y17.5242
 X32.2791 Y17.8527
 X32.4195 Y18.1723
 X32.5744 Y18.4825
 X32.7433 Y18.7826
 X32.9261 Y19.0729
 X33.1221 Y19.3524
 X33.3311 Y19.6213
 X33.5527 Y19.8789
 X33.7865 Y20.1250
 X34.0321 Y20.3591
 X34.2893 Y20.5811
 X34.5575 Y20.7904
 X34.8366 Y20.9868
 X35.1260 Y21.1697
 X35.4257 Y21.3388
 X35.7353 Y21.4940
 X36.0542 Y21.6347
 X36.3818 Y21.7602
 X36.7187 Y21.8705
 X37.0640 Y21.9650
 X37.4177 Y22.0434
 X37.7792 Y22.1052
 X38.1483 Y22.1499
 X38.5248 Y22.1771
 X38.9086 Y22.1862
G0 Z1.0000



 X14.0171 Y16.1889
G1 Z-3.1750
 X14.1538 Y16.1823
 X14.2828 Y16.1633
 X14.4049 Y16.1328
 X14.5197 Y16.0918
 X14.6271 Y16.0411
 X14.7274 Y15.9809
 X14.8207 Y15.9117
 X14.9059 Y15.8344
 X14.9832 Y15.7489
 X15.0524 Y15.6555
 X15.1126 Y15.5546
 X15.1636 Y15.4464
 X15.2045 Y15.3315
 X15.2348 Y15.2091
 X15.2539 Y15.0787
 X15.2606 Y14.9413
 X15.2539 Y14.8039
 X15.2348 Y14.6736
 X15.2045 Y14.5510
 X15.1637 Y14.4363
 X15.1126 Y14.3281
 X15.0524 Y14.2271
 X14.9833 Y14.1339
 X14.9059 Y14.0483
 X14.8206 Y13.9709
 X14.7276 Y13.9018
 X14.6272 Y13.8416
 X14.5193 Y13.7906
 X14.4049 Y13.7498
 X14.2830 Y13.7194
 X14.1538 Y13.7004
 X14.0171 Y13.6938
 X13.8802 Y13.7004
 X13.7510 Y13.7194
 X13.6291 Y13.7498
 X13.5145 Y13.7907
 X13.4068 Y13.8416
 X13.3065 Y13.9017
 X13.2135 Y13.9708
 X13.1282 Y14.0483
 X13.0507 Y14.1339
 X12.9817 Y14.2271
 X12.9214 Y14.3281
 X12.8705 Y14.4361
 X12.8296 Y14.5513
 X12.7991 Y14.6738
 X12.7801 Y14.8037
 X12.7735 Y14.9413
 X12.7801 Y15.0789
 X12.7991 Y15.2089
 X12.8295 Y15.3313
 X12.8705 Y15.4466
 X12.9214 Y15.5546
 X12.9817 Y15.6555
 X13.0508 Y15.7489
 X13.1282 Y15.8344
 X13.2134 Y15.9118
 X13.3067 Y15.9810
 X13.4068 Y16.0411
 X13.5142 Y16.0918
 X13.6291 Y16.1328
 X13.7513 Y16.1633
 X13.8802 Y16.1823
 X14.0171 Y16.1889
G1 Z-6.3500
 X14.1538 Y16.1823
 X14.2828 Y16.1633
 X14.4049 Y16.1328
 X14.5197 Y16.0918
 X14.6271 Y16.0411
 X14.7274 Y15.9809
 X14.8207 Y15.9117
 X14.9059 Y15.8344
 X14.9832 Y15.7489
 X15.0524 Y15.6555
 X15.1126 Y15.5546
 X15.1636 Y15.4464
 X15.2045 Y15.3315
 X15.2348 Y15.2091
 X15.2539 Y15.0787
 X15.2606 Y14.9413
 X15.2539 Y14.8039
 X15.2348 Y14.6736
 X15.2045 Y14.5510
 X15.1637 Y14.4363
 X15.1126 Y14.3281
 X15.0524 Y14.2271
 X14.9833 Y14.1339
 X14.9059 Y14.0483
 X14.8206 Y13.9709
 X14.7276 Y13.9018
 X14.6272 Y13.8416
 X14.5193 Y13.7906
 X14.4049 Y13.7498
 X14.2830 Y13.7194
 X14.1538 Y13.7004
 X14.0171 Y13.6938
 X13.8802 Y13.7004
 X13.7510 Y13.7194
 X13.6291 Y13.7498
 X13.5145 Y13.7907
 X13.4068 Y13.8416
 X13.3065 Y13.9017
 X13.2135 Y13.9708
 X13.1282 Y14.0483
 X13.0507 Y14.1339
 X12.9817 Y14.2271
 X12.9214 Y14.3281
 X12.8705 Y14.4361
 X12.8296 Y14.5513
 X12.7991 Y14.6738
 X12.7801 Y14.8037
 X12.7735 Y14.9413
 X12.7801 Y15.0789
 X12.7991 Y15.2089
 X12.8295 Y15.3313
 X12.8705 Y15.4466
 X12.9214 Y15.5546
 X12.9817 Y15.6555
 X13.0508 Y15.7489
 X13.1282 Y15.8344
 X13.2134 Y15.9118
 X13.3067 Y15.9810
 X13.4068 Y16.0411
 X13.5142 Y16.0918
 X13.6291 Y16.1328
 X13.7513 Y16.1633
 X13.8802 Y16.1823
 X14.0171 Y16.1889
 
G0 Z1.0000
M5 (stop spindle)
G04 P3 (wait for 3 seconds)
G0 Z1.0000
M2 (end program)
