;Hand optimized
;Estimated machine time: 2 minutes
G40 (disable tool radius compensation)
G49 (disable tool length compensation)
G80 (cancel modal motion)
G54 (select coordinate system 1)
G90 (disable incremental moves)
G21 (metric)
G61 (exact path mode)
F300.00000
S1000.00000
;
T1 M6
G0 Z1.0000
M3 (start spindle)
G04 P3 (wait for 3 seconds)
 X63.8999 Y16.1889
G1 Z-3.1750
 X64.0367 Y16.1823
 X64.1656 Y16.1633
 X64.2878 Y16.1328
 X64.4027 Y16.0918
 X64.5100 Y16.0411
 X64.6102 Y15.9810
 X64.7034 Y15.9118
 X64.7888 Y15.8343
 X64.8660 Y15.7490
 X64.9352 Y15.6553
 X64.9955 Y15.5546
 X65.0462 Y15.4468
 X65.0874 Y15.3311
 X65.1177 Y15.2091
 X65.1367 Y15.0789
 X65.1434 Y14.9413
 X65.1367 Y14.8037
 X65.1177 Y14.6736
 X65.0874 Y14.5515
 X65.0462 Y14.4359
 X64.9955 Y14.3281
 X64.9352 Y14.2273
 X64.8660 Y14.1338
 X64.7888 Y14.0484
 X64.7033 Y13.9708
 X64.6104 Y13.9017
 X64.5101 Y13.8416
 X64.4023 Y13.7906
 X64.2878 Y13.7498
 X64.1658 Y13.7194
 X64.0367 Y13.7004
 X63.8999 Y13.6938
 X63.7630 Y13.7004
 X63.6338 Y13.7194
 X63.5119 Y13.7498
 X63.3974 Y13.7906
 X63.2896 Y13.8416
 X63.1892 Y13.9018
 X63.0965 Y13.9707
 X63.0110 Y14.0483
 X62.9334 Y14.1341
 X62.8645 Y14.2271
 X62.8041 Y14.3283
 X62.7533 Y14.4359
 X62.7125 Y14.5510
 X62.6819 Y14.6740
 X62.6629 Y14.8037
 X62.6563 Y14.9413
 X62.6629 Y15.0789
 X62.6819 Y15.2087
 X62.7125 Y15.3315
 X62.7534 Y15.4468
 X62.8041 Y15.5544
 X62.8645 Y15.6555
 X62.9335 Y15.7488
 X63.0110 Y15.8344
 X63.0963 Y15.9119
 X63.1894 Y15.9809
 X63.2897 Y16.0411
 X63.3970 Y16.0918
 X63.5119 Y16.1328
 X63.6341 Y16.1633
 X63.7630 Y16.1823
 X63.8999 Y16.1889
 X64.0367 Y16.1823
 X64.1656 Y16.1633
 X64.2878 Y16.1328
 X64.4027 Y16.0918
 X64.5100 Y16.0411
 X64.6102 Y15.9810
 X64.7034 Y15.9118
 X64.7888 Y15.8343
 X64.8660 Y15.7490
 X64.9352 Y15.6553
 X64.9955 Y15.5546
 X65.0462 Y15.4468
 X65.0874 Y15.3311
 X65.1177 Y15.2091
 X65.1367 Y15.0789
 X65.1434 Y14.9413
 X65.1367 Y14.8037
 X65.1177 Y14.6736
 X65.0874 Y14.5515
 X65.0462 Y14.4359
 X64.9955 Y14.3281
 X64.9352 Y14.2273
 X64.8660 Y14.1338
 X64.7888 Y14.0484
 X64.7033 Y13.9708
 X64.6104 Y13.9017
 X64.5101 Y13.8416
 X64.4023 Y13.7906
 X64.2878 Y13.7498
 X64.1658 Y13.7194
 X64.0367 Y13.7004
 X63.8999 Y13.6938
 X63.7630 Y13.7004
 X63.6338 Y13.7194
 X63.5119 Y13.7498
 X63.3974 Y13.7906
 X63.2896 Y13.8416
 X63.1892 Y13.9018
 X63.0965 Y13.9707
 X63.0110 Y14.0483
 X62.9334 Y14.1341
 X62.8645 Y14.2271
 X62.8041 Y14.3283
 X62.7533 Y14.4359
 X62.7125 Y14.5510
 X62.6819 Y14.6740
 X62.6629 Y14.8037
 X62.6563 Y14.9413
 X62.6629 Y15.0789
 X62.6819 Y15.2087
 X62.7125 Y15.3315
 X62.7534 Y15.4468
 X62.8041 Y15.5544
 X62.8645 Y15.6555
 X62.9335 Y15.7488
 X63.0110 Y15.8344
 X63.0963 Y15.9119
 X63.1894 Y15.9809
 X63.2897 Y16.0411
 X63.3970 Y16.0918
 X63.5119 Y16.1328
 X63.6341 Y16.1633
 X63.7630 Y16.1823
 X63.8999 Y16.1889
G0 Z1.0000
 X38.8986 Y21.9864
G1 Z-3.1750
 X39.2711 Y21.9776
 X39.6366 Y21.9511
 X39.9954 Y21.9077
 X40.3464 Y21.8477
 X40.6899 Y21.7715
 X41.0257 Y21.6795
 X41.3532 Y21.5725
 X41.6717 Y21.4506
 X41.9816 Y21.3141
 X42.2823 Y21.1634
 X42.5738 Y20.9991
 X42.8553 Y20.8213
 X43.1268 Y20.6306
 X43.3875 Y20.4275
 X43.6375 Y20.2119
 X43.8765 Y19.9844
 X44.1041 Y19.7453
 X44.3196 Y19.4953
 X44.5228 Y19.2344
 X44.7137 Y18.9628
 X44.8915 Y18.6811
 X45.0559 Y18.3898
 X45.2065 Y18.0888
 X45.3432 Y17.7785
 X45.4654 Y17.4595
 X45.5725 Y17.1319
 X45.6644 Y16.7959
 X45.7406 Y16.4517
 X45.8008 Y16.0999
 X45.8442 Y15.7411
 X45.8706 Y15.3746
 X45.8796 Y15.0012
 X45.8706 Y14.6281
 X45.8442 Y14.2613
 X45.8008 Y13.9023
 X45.7406 Y13.5504
 X45.6643 Y13.2059
 X45.5724 Y12.8696
 X45.4653 Y12.5417
 X45.3431 Y12.2223
 X45.2064 Y11.9115
 X45.0556 Y11.6101
 X44.8912 Y11.3182
 X44.7134 Y11.0361
 X44.5224 Y10.7641
 X44.3191 Y10.5026
 X44.1035 Y10.2521
 X43.8759 Y10.0125
 X43.6369 Y9.7846
 X43.3869 Y9.5687
 X43.1259 Y9.3650
 X42.8545 Y9.1738
 X42.5731 Y8.9959
 X42.2816 Y8.8311
 X41.9809 Y8.6801
 X41.6709 Y8.5433
 X41.3523 Y8.4211
 X41.0250 Y8.3137
 X40.6895 Y8.2216
 X40.3460 Y8.1453
 X39.9949 Y8.0851
 X39.6364 Y8.0416
 X39.2710 Y8.0151
 X38.8986 Y8.0062
 X38.5263 Y8.0151
 X38.1608 Y8.0416
 X37.8024 Y8.0851
 X37.4516 Y8.1453
 X37.1085 Y8.2216
 X36.7733 Y8.3136
 X36.4464 Y8.4210
 X36.1281 Y8.5432
 X35.8185 Y8.6800
 X35.5182 Y8.8309
 X35.2274 Y8.9955
 X34.9464 Y9.1735
 X34.6753 Y9.3646
 X34.4148 Y9.5682
 X34.1654 Y9.7840
 X33.9267 Y10.0120
 X33.6996 Y10.2514
 X33.4845 Y10.5019
 X33.2815 Y10.7633
 X33.0911 Y11.0353
 X32.9136 Y11.3173
 X32.7496 Y11.6093
 X32.5991 Y11.9108
 X32.4628 Y12.2214
 X32.3409 Y12.5409
 X32.2339 Y12.8690
 X32.1422 Y13.2054
 X32.0661 Y13.5497
 X32.0063 Y13.9018
 X31.9628 Y14.2612
 X31.9366 Y14.6277
 X31.9277 Y15.0012
 X31.9366 Y15.3750
 X31.9628 Y15.7412
 X32.0063 Y16.1004
 X32.0661 Y16.4525
 X32.1422 Y16.7964
 X32.2339 Y17.1325
 X32.3408 Y17.4602
 X32.4627 Y17.7794
 X32.5989 Y18.0896
 X32.7493 Y18.3906
 X32.9133 Y18.6819
 X33.0907 Y18.9636
 X33.2811 Y19.2351
 X33.4839 Y19.4960
 X33.6990 Y19.7460
 X33.9261 Y19.9850
 X34.1648 Y20.2125
 X34.4141 Y20.4280
 X34.6744 Y20.6309
 X34.9457 Y20.8217
 X35.2267 Y20.9995
 X35.5174 Y21.1637
 X35.8178 Y21.3143
 X36.1272 Y21.4507
 X36.4456 Y21.5726
 X36.7726 Y21.6796
 X37.1081 Y21.7716
 X37.4512 Y21.8477
 X37.8020 Y21.9077
 X38.1606 Y21.9511
 X38.5262 Y21.9776
 X38.8986 Y21.9864
 X39.2711 Y21.9776
 X39.6366 Y21.9511
 X39.9954 Y21.9077
 X40.3464 Y21.8477
 X40.6899 Y21.7715
 X41.0257 Y21.6795
 X41.3532 Y21.5725
 X41.6717 Y21.4506
 X41.9816 Y21.3141
 X42.2823 Y21.1634
 X42.5738 Y20.9991
 X42.8553 Y20.8213
 X43.1268 Y20.6306
 X43.3875 Y20.4275
 X43.6375 Y20.2119
 X43.8765 Y19.9844
 X44.1041 Y19.7453
 X44.3196 Y19.4953
 X44.5228 Y19.2344
 X44.7137 Y18.9628
 X44.8915 Y18.6811
 X45.0559 Y18.3898
 X45.2065 Y18.0888
 X45.3432 Y17.7785
 X45.4654 Y17.4595
 X45.5725 Y17.1319
 X45.6644 Y16.7959
 X45.7406 Y16.4517
 X45.8008 Y16.0999
 X45.8442 Y15.7411
 X45.8706 Y15.3746
 X45.8796 Y15.0012
 X45.8706 Y14.6281
 X45.8442 Y14.2613
 X45.8008 Y13.9023
 X45.7406 Y13.5504
 X45.6643 Y13.2059
 X45.5724 Y12.8696
 X45.4653 Y12.5417
 X45.3431 Y12.2223
 X45.2064 Y11.9115
 X45.0556 Y11.6101
 X44.8912 Y11.3182
 X44.7134 Y11.0361
 X44.5224 Y10.7641
 X44.3191 Y10.5026
 X44.1035 Y10.2521
 X43.8759 Y10.0125
 X43.6369 Y9.7846
 X43.3869 Y9.5687
 X43.1259 Y9.3650
 X42.8545 Y9.1738
 X42.5731 Y8.9959
 X42.2816 Y8.8311
 X41.9809 Y8.6801
 X41.6709 Y8.5433
 X41.3523 Y8.4211
 X41.0250 Y8.3137
 X40.6895 Y8.2216
 X40.3460 Y8.1453
 X39.9949 Y8.0851
 X39.6364 Y8.0416
 X39.2710 Y8.0151
 X38.8986 Y8.0062
 X38.5263 Y8.0151
 X38.1608 Y8.0416
 X37.8024 Y8.0851
 X37.4516 Y8.1453
 X37.1085 Y8.2216
 X36.7733 Y8.3136
 X36.4464 Y8.4210
 X36.1281 Y8.5432
 X35.8185 Y8.6800
 X35.5182 Y8.8309
 X35.2274 Y8.9955
 X34.9464 Y9.1735
 X34.6753 Y9.3646
 X34.4148 Y9.5682
 X34.1654 Y9.7840
 X33.9267 Y10.0120
 X33.6996 Y10.2514
 X33.4845 Y10.5019
 X33.2815 Y10.7633
 X33.0911 Y11.0353
 X32.9136 Y11.3173
 X32.7496 Y11.6093
 X32.5991 Y11.9108
 X32.4628 Y12.2214
 X32.3409 Y12.5409
 X32.2339 Y12.8690
 X32.1422 Y13.2054
 X32.0661 Y13.5497
 X32.0063 Y13.9018
 X31.9628 Y14.2612
 X31.9366 Y14.6277
 X31.9277 Y15.0012
 X31.9366 Y15.3750
 X31.9628 Y15.7412
 X32.0063 Y16.1004
 X32.0661 Y16.4525
 X32.1422 Y16.7964
 X32.2339 Y17.1325
 X32.3408 Y17.4602
 X32.4627 Y17.7794
 X32.5989 Y18.0896
 X32.7493 Y18.3906
 X32.9133 Y18.6819
 X33.0907 Y18.9636
 X33.2811 Y19.2351
 X33.4839 Y19.4960
 X33.6990 Y19.7460
 X33.9261 Y19.9850
 X34.1648 Y20.2125
 X34.4141 Y20.4280
 X34.6744 Y20.6309
 X34.9457 Y20.8217
 X35.2267 Y20.9995
 X35.5174 Y21.1637
 X35.8178 Y21.3143
 X36.1272 Y21.4507
 X36.4456 Y21.5726
 X36.7726 Y21.6796
 X37.1081 Y21.7716
 X37.4512 Y21.8477
 X37.8020 Y21.9077
 X38.1606 Y21.9511
 X38.5262 Y21.9776
 X38.8986 Y21.9864
G0 Z1.0000
 X14.0171 Y16.1889
G1 Z-3.1750
 X14.1538 Y16.1823
 X14.2828 Y16.1633
 X14.4049 Y16.1328
 X14.5197 Y16.0918
 X14.6271 Y16.0411
 X14.7274 Y15.9809
 X14.8207 Y15.9117
 X14.9059 Y15.8344
 X14.9832 Y15.7489
 X15.0524 Y15.6555
 X15.1126 Y15.5546
 X15.1636 Y15.4464
 X15.2045 Y15.3315
 X15.2348 Y15.2091
 X15.2539 Y15.0787
 X15.2606 Y14.9413
 X15.2539 Y14.8039
 X15.2348 Y14.6736
 X15.2045 Y14.5510
 X15.1637 Y14.4363
 X15.1126 Y14.3281
 X15.0524 Y14.2271
 X14.9833 Y14.1339
 X14.9059 Y14.0483
 X14.8206 Y13.9709
 X14.7276 Y13.9018
 X14.6272 Y13.8416
 X14.5193 Y13.7906
 X14.4049 Y13.7498
 X14.2830 Y13.7194
 X14.1538 Y13.7004
 X14.0171 Y13.6938
 X13.8802 Y13.7004
 X13.7510 Y13.7194
 X13.6291 Y13.7498
 X13.5145 Y13.7907
 X13.4068 Y13.8416
 X13.3065 Y13.9017
 X13.2135 Y13.9708
 X13.1282 Y14.0483
 X13.0507 Y14.1339
 X12.9817 Y14.2271
 X12.9214 Y14.3281
 X12.8705 Y14.4361
 X12.8296 Y14.5513
 X12.7991 Y14.6738
 X12.7801 Y14.8037
 X12.7735 Y14.9413
 X12.7801 Y15.0789
 X12.7991 Y15.2089
 X12.8295 Y15.3313
 X12.8705 Y15.4466
 X12.9214 Y15.5546
 X12.9817 Y15.6555
 X13.0508 Y15.7489
 X13.1282 Y15.8344
 X13.2134 Y15.9118
 X13.3067 Y15.9810
 X13.4068 Y16.0411
 X13.5142 Y16.0918
 X13.6291 Y16.1328
 X13.7513 Y16.1633
 X13.8802 Y16.1823
 X14.0171 Y16.1889
 X14.1538 Y16.1823
 X14.2828 Y16.1633
 X14.4049 Y16.1328
 X14.5197 Y16.0918
 X14.6271 Y16.0411
 X14.7274 Y15.9809
 X14.8207 Y15.9117
 X14.9059 Y15.8344
 X14.9832 Y15.7489
 X15.0524 Y15.6555
 X15.1126 Y15.5546
 X15.1636 Y15.4464
 X15.2045 Y15.3315
 X15.2348 Y15.2091
 X15.2539 Y15.0787
 X15.2606 Y14.9413
 X15.2539 Y14.8039
 X15.2348 Y14.6736
 X15.2045 Y14.5510
 X15.1637 Y14.4363
 X15.1126 Y14.3281
 X15.0524 Y14.2271
 X14.9833 Y14.1339
 X14.9059 Y14.0483
 X14.8206 Y13.9709
 X14.7276 Y13.9018
 X14.6272 Y13.8416
 X14.5193 Y13.7906
 X14.4049 Y13.7498
 X14.2830 Y13.7194
 X14.1538 Y13.7004
 X14.0171 Y13.6938
 X13.8802 Y13.7004
 X13.7510 Y13.7194
 X13.6291 Y13.7498
 X13.5145 Y13.7907
 X13.4068 Y13.8416
 X13.3065 Y13.9017
 X13.2135 Y13.9708
 X13.1282 Y14.0483
 X13.0507 Y14.1339
 X12.9817 Y14.2271
 X12.9214 Y14.3281
 X12.8705 Y14.4361
 X12.8296 Y14.5513
 X12.7991 Y14.6738
 X12.7801 Y14.8037
 X12.7735 Y14.9413
 X12.7801 Y15.0789
 X12.7991 Y15.2089
 X12.8295 Y15.3313
 X12.8705 Y15.4466
 X12.9214 Y15.5546
 X12.9817 Y15.6555
 X13.0508 Y15.7489
 X13.1282 Y15.8344
 X13.2134 Y15.9118
 X13.3067 Y15.9810
 X13.4068 Y16.0411
 X13.5142 Y16.0918
 X13.6291 Y16.1328
 X13.7513 Y16.1633
 X13.8802 Y16.1823
 X14.0171 Y16.1889
G0 Z1.0000
 X63.8999
G1 Z-6.3500
 X64.0367 Y16.1823
 X64.1656 Y16.1633
 X64.2878 Y16.1328
 X64.4027 Y16.0918
 X64.5100 Y16.0411
 X64.6102 Y15.9810
 X64.7034 Y15.9118
 X64.7888 Y15.8343
 X64.8660 Y15.7490
 X64.9352 Y15.6553
 X64.9955 Y15.5546
 X65.0462 Y15.4468
 X65.0874 Y15.3311
 X65.1177 Y15.2091
 X65.1367 Y15.0789
 X65.1434 Y14.9413
 X65.1367 Y14.8037
 X65.1177 Y14.6736
 X65.0874 Y14.5515
 X65.0462 Y14.4359
 X64.9955 Y14.3281
 X64.9352 Y14.2273
 X64.8660 Y14.1338
 X64.7888 Y14.0484
 X64.7033 Y13.9708
 X64.6104 Y13.9017
 X64.5101 Y13.8416
 X64.4023 Y13.7906
 X64.2878 Y13.7498
 X64.1658 Y13.7194
 X64.0367 Y13.7004
 X63.8999 Y13.6938
 X63.7630 Y13.7004
 X63.6338 Y13.7194
 X63.5119 Y13.7498
 X63.3974 Y13.7906
 X63.2896 Y13.8416
 X63.1892 Y13.9018
 X63.0965 Y13.9707
 X63.0110 Y14.0483
 X62.9334 Y14.1341
 X62.8645 Y14.2271
 X62.8041 Y14.3283
 X62.7533 Y14.4359
 X62.7125 Y14.5510
 X62.6819 Y14.6740
 X62.6629 Y14.8037
 X62.6563 Y14.9413
 X62.6629 Y15.0789
 X62.6819 Y15.2087
 X62.7125 Y15.3315
 X62.7534 Y15.4468
 X62.8041 Y15.5544
 X62.8645 Y15.6555
 X62.9335 Y15.7488
 X63.0110 Y15.8344
 X63.0963 Y15.9119
 X63.1894 Y15.9809
 X63.2897 Y16.0411
 X63.3970 Y16.0918
 X63.5119 Y16.1328
 X63.6341 Y16.1633
 X63.7630 Y16.1823
 X63.8999 Y16.1889
 X64.0367 Y16.1823
 X64.1656 Y16.1633
 X64.2878 Y16.1328
 X64.4027 Y16.0918
 X64.5100 Y16.0411
 X64.6102 Y15.9810
 X64.7034 Y15.9118
 X64.7888 Y15.8343
 X64.8660 Y15.7490
 X64.9352 Y15.6553
 X64.9955 Y15.5546
 X65.0462 Y15.4468
 X65.0874 Y15.3311
 X65.1177 Y15.2091
 X65.1367 Y15.0789
 X65.1434 Y14.9413
 X65.1367 Y14.8037
 X65.1177 Y14.6736
 X65.0874 Y14.5515
 X65.0462 Y14.4359
 X64.9955 Y14.3281
 X64.9352 Y14.2273
 X64.8660 Y14.1338
 X64.7888 Y14.0484
 X64.7033 Y13.9708
 X64.6104 Y13.9017
 X64.5101 Y13.8416
 X64.4023 Y13.7906
 X64.2878 Y13.7498
 X64.1658 Y13.7194
 X64.0367 Y13.7004
 X63.8999 Y13.6938
 X63.7630 Y13.7004
 X63.6338 Y13.7194
 X63.5119 Y13.7498
 X63.3974 Y13.7906
 X63.2896 Y13.8416
 X63.1892 Y13.9018
 X63.0965 Y13.9707
 X63.0110 Y14.0483
 X62.9334 Y14.1341
 X62.8645 Y14.2271
 X62.8041 Y14.3283
 X62.7533 Y14.4359
 X62.7125 Y14.5510
 X62.6819 Y14.6740
 X62.6629 Y14.8037
 X62.6563 Y14.9413
 X62.6629 Y15.0789
 X62.6819 Y15.2087
 X62.7125 Y15.3315
 X62.7534 Y15.4468
 X62.8041 Y15.5544
 X62.8645 Y15.6555
 X62.9335 Y15.7488
 X63.0110 Y15.8344
 X63.0963 Y15.9119
 X63.1894 Y15.9809
 X63.2897 Y16.0411
 X63.3970 Y16.0918
 X63.5119 Y16.1328
 X63.6341 Y16.1633
 X63.7630 Y16.1823
 X63.8999 Y16.1889
G0 Z1.0000
 X38.8986 Y21.9864
G1 Z-6.3500
 X39.2711 Y21.9776
 X39.6366 Y21.9511
 X39.9954 Y21.9077
 X40.3464 Y21.8477
 X40.6899 Y21.7715
 X41.0257 Y21.6795
 X41.3532 Y21.5725
 X41.6717 Y21.4506
 X41.9816 Y21.3141
 X42.2823 Y21.1634
 X42.5738 Y20.9991
 X42.8553 Y20.8213
 X43.1268 Y20.6306
 X43.3875 Y20.4275
 X43.6375 Y20.2119
 X43.8765 Y19.9844
 X44.1041 Y19.7453
 X44.3196 Y19.4953
 X44.5228 Y19.2344
 X44.7137 Y18.9628
 X44.8915 Y18.6811
 X45.0559 Y18.3898
 X45.2065 Y18.0888
 X45.3432 Y17.7785
 X45.4654 Y17.4595
 X45.5725 Y17.1319
 X45.6644 Y16.7959
 X45.7406 Y16.4517
 X45.8008 Y16.0999
 X45.8442 Y15.7411
 X45.8706 Y15.3746
 X45.8796 Y15.0012
 X45.8706 Y14.6281
 X45.8442 Y14.2613
 X45.8008 Y13.9023
 X45.7406 Y13.5504
 X45.6643 Y13.2059
 X45.5724 Y12.8696
 X45.4653 Y12.5417
 X45.3431 Y12.2223
 X45.2064 Y11.9115
 X45.0556 Y11.6101
 X44.8912 Y11.3182
 X44.7134 Y11.0361
 X44.5224 Y10.7641
 X44.3191 Y10.5026
 X44.1035 Y10.2521
 X43.8759 Y10.0125
 X43.6369 Y9.7846
 X43.3869 Y9.5687
 X43.1259 Y9.3650
 X42.8545 Y9.1738
 X42.5731 Y8.9959
 X42.2816 Y8.8311
 X41.9809 Y8.6801
 X41.6709 Y8.5433
 X41.3523 Y8.4211
 X41.0250 Y8.3137
 X40.6895 Y8.2216
 X40.3460 Y8.1453
 X39.9949 Y8.0851
 X39.6364 Y8.0416
 X39.2710 Y8.0151
 X38.8986 Y8.0062
 X38.5263 Y8.0151
 X38.1608 Y8.0416
 X37.8024 Y8.0851
 X37.4516 Y8.1453
 X37.1085 Y8.2216
 X36.7733 Y8.3136
 X36.4464 Y8.4210
 X36.1281 Y8.5432
 X35.8185 Y8.6800
 X35.5182 Y8.8309
 X35.2274 Y8.9955
 X34.9464 Y9.1735
 X34.6753 Y9.3646
 X34.4148 Y9.5682
 X34.1654 Y9.7840
 X33.9267 Y10.0120
 X33.6996 Y10.2514
 X33.4845 Y10.5019
 X33.2815 Y10.7633
 X33.0911 Y11.0353
 X32.9136 Y11.3173
 X32.7496 Y11.6093
 X32.5991 Y11.9108
 X32.4628 Y12.2214
 X32.3409 Y12.5409
 X32.2339 Y12.8690
 X32.1422 Y13.2054
 X32.0661 Y13.5497
 X32.0063 Y13.9018
 X31.9628 Y14.2612
 X31.9366 Y14.6277
 X31.9277 Y15.0012
 X31.9366 Y15.3750
 X31.9628 Y15.7412
 X32.0063 Y16.1004
 X32.0661 Y16.4525
 X32.1422 Y16.7964
 X32.2339 Y17.1325
 X32.3408 Y17.4602
 X32.4627 Y17.7794
 X32.5989 Y18.0896
 X32.7493 Y18.3906
 X32.9133 Y18.6819
 X33.0907 Y18.9636
 X33.2811 Y19.2351
 X33.4839 Y19.4960
 X33.6990 Y19.7460
 X33.9261 Y19.9850
 X34.1648 Y20.2125
 X34.4141 Y20.4280
 X34.6744 Y20.6309
 X34.9457 Y20.8217
 X35.2267 Y20.9995
 X35.5174 Y21.1637
 X35.8178 Y21.3143
 X36.1272 Y21.4507
 X36.4456 Y21.5726
 X36.7726 Y21.6796
 X37.1081 Y21.7716
 X37.4512 Y21.8477
 X37.8020 Y21.9077
 X38.1606 Y21.9511
 X38.5262 Y21.9776
 X38.8986 Y21.9864
 X39.2711 Y21.9776
 X39.6366 Y21.9511
 X39.9954 Y21.9077
 X40.3464 Y21.8477
 X40.6899 Y21.7715
 X41.0257 Y21.6795
 X41.3532 Y21.5725
 X41.6717 Y21.4506
 X41.9816 Y21.3141
 X42.2823 Y21.1634
 X42.5738 Y20.9991
 X42.8553 Y20.8213
 X43.1268 Y20.6306
 X43.3875 Y20.4275
 X43.6375 Y20.2119
 X43.8765 Y19.9844
 X44.1041 Y19.7453
 X44.3196 Y19.4953
 X44.5228 Y19.2344
 X44.7137 Y18.9628
 X44.8915 Y18.6811
 X45.0559 Y18.3898
 X45.2065 Y18.0888
 X45.3432 Y17.7785
 X45.4654 Y17.4595
 X45.5725 Y17.1319
 X45.6644 Y16.7959
 X45.7406 Y16.4517
 X45.8008 Y16.0999
 X45.8442 Y15.7411
 X45.8706 Y15.3746
 X45.8796 Y15.0012
 X45.8706 Y14.6281
 X45.8442 Y14.2613
 X45.8008 Y13.9023
 X45.7406 Y13.5504
 X45.6643 Y13.2059
 X45.5724 Y12.8696
 X45.4653 Y12.5417
 X45.3431 Y12.2223
 X45.2064 Y11.9115
 X45.0556 Y11.6101
 X44.8912 Y11.3182
 X44.7134 Y11.0361
 X44.5224 Y10.7641
 X44.3191 Y10.5026
 X44.1035 Y10.2521
 X43.8759 Y10.0125
 X43.6369 Y9.7846
 X43.3869 Y9.5687
 X43.1259 Y9.3650
 X42.8545 Y9.1738
 X42.5731 Y8.9959
 X42.2816 Y8.8311
 X41.9809 Y8.6801
 X41.6709 Y8.5433
 X41.3523 Y8.4211
 X41.0250 Y8.3137
 X40.6895 Y8.2216
 X40.3460 Y8.1453
 X39.9949 Y8.0851
 X39.6364 Y8.0416
 X39.2710 Y8.0151
 X38.8986 Y8.0062
 X38.5263 Y8.0151
 X38.1608 Y8.0416
 X37.8024 Y8.0851
 X37.4516 Y8.1453
 X37.1085 Y8.2216
 X36.7733 Y8.3136
 X36.4464 Y8.4210
 X36.1281 Y8.5432
 X35.8185 Y8.6800
 X35.5182 Y8.8309
 X35.2274 Y8.9955
 X34.9464 Y9.1735
 X34.6753 Y9.3646
 X34.4148 Y9.5682
 X34.1654 Y9.7840
 X33.9267 Y10.0120
 X33.6996 Y10.2514
 X33.4845 Y10.5019
 X33.2815 Y10.7633
 X33.0911 Y11.0353
 X32.9136 Y11.3173
 X32.7496 Y11.6093
 X32.5991 Y11.9108
 X32.4628 Y12.2214
 X32.3409 Y12.5409
 X32.2339 Y12.8690
 X32.1422 Y13.2054
 X32.0661 Y13.5497
 X32.0063 Y13.9018
 X31.9628 Y14.2612
 X31.9366 Y14.6277
 X31.9277 Y15.0012
 X31.9366 Y15.3750
 X31.9628 Y15.7412
 X32.0063 Y16.1004
 X32.0661 Y16.4525
 X32.1422 Y16.7964
 X32.2339 Y17.1325
 X32.3408 Y17.4602
 X32.4627 Y17.7794
 X32.5989 Y18.0896
 X32.7493 Y18.3906
 X32.9133 Y18.6819
 X33.0907 Y18.9636
 X33.2811 Y19.2351
 X33.4839 Y19.4960
 X33.6990 Y19.7460
 X33.9261 Y19.9850
 X34.1648 Y20.2125
 X34.4141 Y20.4280
 X34.6744 Y20.6309
 X34.9457 Y20.8217
 X35.2267 Y20.9995
 X35.5174 Y21.1637
 X35.8178 Y21.3143
 X36.1272 Y21.4507
 X36.4456 Y21.5726
 X36.7726 Y21.6796
 X37.1081 Y21.7716
 X37.4512 Y21.8477
 X37.8020 Y21.9077
 X38.1606 Y21.9511
 X38.5262 Y21.9776
 X38.8986 Y21.9864
G0 Z1.0000
 X14.0171 Y16.1889
G1 Z-6.3500
 X14.1538 Y16.1823
 X14.2828 Y16.1633
 X14.4049 Y16.1328
 X14.5197 Y16.0918
 X14.6271 Y16.0411
 X14.7274 Y15.9809
 X14.8207 Y15.9117
 X14.9059 Y15.8344
 X14.9832 Y15.7489
 X15.0524 Y15.6555
 X15.1126 Y15.5546
 X15.1636 Y15.4464
 X15.2045 Y15.3315
 X15.2348 Y15.2091
 X15.2539 Y15.0787
 X15.2606 Y14.9413
 X15.2539 Y14.8039
 X15.2348 Y14.6736
 X15.2045 Y14.5510
 X15.1637 Y14.4363
 X15.1126 Y14.3281
 X15.0524 Y14.2271
 X14.9833 Y14.1339
 X14.9059 Y14.0483
 X14.8206 Y13.9709
 X14.7276 Y13.9018
 X14.6272 Y13.8416
 X14.5193 Y13.7906
 X14.4049 Y13.7498
 X14.2830 Y13.7194
 X14.1538 Y13.7004
 X14.0171 Y13.6938
 X13.8802 Y13.7004
 X13.7510 Y13.7194
 X13.6291 Y13.7498
 X13.5145 Y13.7907
 X13.4068 Y13.8416
 X13.3065 Y13.9017
 X13.2135 Y13.9708
 X13.1282 Y14.0483
 X13.0507 Y14.1339
 X12.9817 Y14.2271
 X12.9214 Y14.3281
 X12.8705 Y14.4361
 X12.8296 Y14.5513
 X12.7991 Y14.6738
 X12.7801 Y14.8037
 X12.7735 Y14.9413
 X12.7801 Y15.0789
 X12.7991 Y15.2089
 X12.8295 Y15.3313
 X12.8705 Y15.4466
 X12.9214 Y15.5546
 X12.9817 Y15.6555
 X13.0508 Y15.7489
 X13.1282 Y15.8344
 X13.2134 Y15.9118
 X13.3067 Y15.9810
 X13.4068 Y16.0411
 X13.5142 Y16.0918
 X13.6291 Y16.1328
 X13.7513 Y16.1633
 X13.8802 Y16.1823
 X14.0171 Y16.1889
 X14.1538 Y16.1823
 X14.2828 Y16.1633
 X14.4049 Y16.1328
 X14.5197 Y16.0918
 X14.6271 Y16.0411
 X14.7274 Y15.9809
 X14.8207 Y15.9117
 X14.9059 Y15.8344
 X14.9832 Y15.7489
 X15.0524 Y15.6555
 X15.1126 Y15.5546
 X15.1636 Y15.4464
 X15.2045 Y15.3315
 X15.2348 Y15.2091
 X15.2539 Y15.0787
 X15.2606 Y14.9413
 X15.2539 Y14.8039
 X15.2348 Y14.6736
 X15.2045 Y14.5510
 X15.1637 Y14.4363
 X15.1126 Y14.3281
 X15.0524 Y14.2271
 X14.9833 Y14.1339
 X14.9059 Y14.0483
 X14.8206 Y13.9709
 X14.7276 Y13.9018
 X14.6272 Y13.8416
 X14.5193 Y13.7906
 X14.4049 Y13.7498
 X14.2830 Y13.7194
 X14.1538 Y13.7004
 X14.0171 Y13.6938
 X13.8802 Y13.7004
 X13.7510 Y13.7194
 X13.6291 Y13.7498
 X13.5145 Y13.7907
 X13.4068 Y13.8416
 X13.3065 Y13.9017
 X13.2135 Y13.9708
 X13.1282 Y14.0483
 X13.0507 Y14.1339
 X12.9817 Y14.2271
 X12.9214 Y14.3281
 X12.8705 Y14.4361
 X12.8296 Y14.5513
 X12.7991 Y14.6738
 X12.7801 Y14.8037
 X12.7735 Y14.9413
 X12.7801 Y15.0789
 X12.7991 Y15.2089
 X12.8295 Y15.3313
 X12.8705 Y15.4466
 X12.9214 Y15.5546
 X12.9817 Y15.6555
 X13.0508 Y15.7489
 X13.1282 Y15.8344
 X13.2134 Y15.9118
 X13.3067 Y15.9810
 X13.4068 Y16.0411
 X13.5142 Y16.0918
 X13.6291 Y16.1328
 X13.7513 Y16.1633
 X13.8802 Y16.1823
 X14.0171 Y16.1889
G0 Z1.0000
M5 (stop spindle)
G04 P3 (wait for 3 seconds)
G0 Z1.0000
M2 (end program)
